packages/foundations/assets/icons/functional/images/medical/mask_14.svg

<svg width="14" height="14" viewBox="0 0 14 14" fill="none" xmlns="http://www.w3.org/2000/svg">
<g clip-path="url(#clip0_186_221)">
<path fill-rule="evenodd" clip-rule="evenodd" d="M2.84988 8.40474C3.70626 7.85575 5.44096 7.30676 7.00001 7.30676C8.9543 7.30676 10.3816 7.94358 11.238 8.40474H11.8974C12.2707 8.40474 12.6 8.71209 12.6 9.10741C12.6 9.50259 12.2707 9.81008 11.8974 9.81008H11.3478C10.6231 11.5228 8.88842 12.6427 7.00001 12.5988C5.11159 12.5768 3.37688 11.5228 2.65226 9.81008H2.10263C1.70738 9.81008 1.39996 9.50259 1.39996 9.10741C1.39996 8.71209 1.70738 8.40474 2.10263 8.40474H2.84988ZM2.14721 6.07709C2.14721 3.48608 4.34305 1.4 7.04392 1.4C9.7448 1.4 11.9406 3.48608 11.9406 6.07709C11.9406 6.47241 11.6332 6.77976 11.238 6.77976C10.8427 6.77976 10.5353 6.47241 10.5353 6.07709C10.5353 4.27658 8.97626 2.82726 7.04392 2.82726C5.13355 2.82726 3.57451 4.27658 3.57451 6.07709C3.57451 6.47241 3.24513 6.77976 2.84988 6.77976C2.47659 6.77976 2.14721 6.47241 2.14721 6.07709ZM4.03563 9.43675C4.60655 10.5566 5.74838 11.1934 7.00001 11.2154C8.25163 11.2373 9.39347 10.5786 9.96438 9.45875C9.02017 8.97559 8.01009 8.73409 7.00001 8.71209C5.98992 8.73409 5.02376 9.01958 4.03563 9.43675Z" fill="#1A1C1F"/>
</g>
<defs>
<clipPath id="clip0_186_221">
<rect width="14" height="14" fill="white"/>
</clipPath>
</defs>
</svg>

<svg xmlns="http://www.w3.org/2000/svg" width="14" height="14" fill="none"><g clip-path="url(#a)"><path fill="#1A1C1F" fill-rule="evenodd" d="M2.85 8.405C3.706 7.855 5.44 7.307 7 7.307c1.954 0 3.382.637 4.238 1.098h.66c.373 0 .702.307.702.702 0 .396-.33.703-.703.703h-.55C10.624 11.523 8.889 12.643 7 12.6c-1.888-.022-3.623-1.076-4.348-2.789h-.55a.694.694 0 0 1-.702-.703c0-.395.307-.702.703-.702zm-.703-2.328c0-2.59 2.196-4.677 4.897-4.677s4.897 2.086 4.897 4.677a.694.694 0 0 1-.703.703.694.694 0 0 1-.703-.703c0-1.8-1.559-3.25-3.491-3.25-1.91 0-3.47 1.45-3.47 3.25 0 .395-.329.703-.724.703a.707.707 0 0 1-.703-.703m1.889 3.36c.57 1.12 1.712 1.756 2.964 1.778s2.393-.636 2.964-1.756A6.8 6.8 0 0 0 7 8.712c-1.01.022-1.976.308-2.964.725" clip-rule="evenodd"/></g><defs><clipPath id="a"><path fill="#fff" d="M0 0h14v14H0z"/></clipPath></defs></svg>
